X:107
T:Last Days Of Summer Reel
R:reel
C:Bruce Osborne - Sept 2002
Z:abc by bosborne @kos.net
M:2/4
L:1/8
K:Bb
D/E/|F/E/F/G/ F/D/B,/D/|F/E/F/G/ F/B/d/g/|f/c/c/d/ e/c/A/c/|B/A/B/c/ dD/E/|\
F/E/F/G/ F/D/B,/D/|F/E/F/G/ F/B/d/g/|f/c/c/d/ e/c/A/c/|B/A/B/c/ B:|
|:D/E/|F/B/A/B/ F/B/d/g/|f/d/B/G/ Fc/d/|e/c/A/c/ F/c/A/c/|B/A/B/c/ dD/E/|\
F/B/A/B/ F/B/d/g/|f/d/B/G/ Fc/d/|e/c/A/c/ F/c/A/c/|B/A/B/c/ B:|
